X:963
T:Alex Doig's Jig
S:Jim MacLeod LP, Take Your Partners
Z:Nigel Gatherer
N:Transposed from Bb
L:1/8
M:6/8
K:G
d2c |: B2g dcB | A3 e3 | f2d cBA | GAB Adc |
B2g dcB | A3 e3 | fed cBA |1 G3 Gdc :|2G3-GDC ||
B,2G GFG | D2A FED | ABc cBA | GAB D2C |
B,2G GFG | D2A FED | FGA cBA |1 G3-GDC :|2 G3-G2 |]
<end>
<start>
